X: 1
T:Fiona's Reel
R:Reel
O:England
M:4/4
C:Fiona Durance
A:Leeds
K:G
EG FD E3F | AB GB FB EG | \
Bd eg f3g | ec dB Ac AF |\
EG FD E3F | cA Fc BE GB |
EG FG EG FG | cA GF EF GB:: \
eg fg eg fg | bg eb ab gf | \
ab gb fb ef |
ec Ae cA GF | \
EG Be gb ge | cA ec ae ba | \
ge cA BA BG |1 Ae BG EF GB :|2 Ae BG BG AF :|
W:Copyright (C) Fiona Durance
W:Copyright (C) Fiona Durance
